X: 3907
T: Blackberry Blossom, The
R: reel
M: 4/4
K: Gmajor
ge|"G"dBAc BGGA|ABBA B2 ge|dBAc BGBd|"Am"ea ~a2 "D7" a2 ge|
"G"dBAc BGGA|B2 ~B2 B2 ge|dBAc BGBd|"Am"eaag "D7" a2 ge||
"Em"~g2 gf gbaf|gfga beef|gfga bagf|"Am"ea ~a2 a2 ef|
"Em"~g2 gf gbaf|gfga beeg|bgaf gfed|"Am"eaag a2||

